X: 113
T: Roundy's Contra Dance I-3
C: A. F. Roundy
M: 6/8
L: 1/8
K: D
|: "D" (!2!f!1!^e!1!f)      (!tenuto!d2 !tenuto!d) | "G" (gfg) "Em" (!tenuto!e2 !tenuto!e) | "D" fga def | "Em" eBB "A" cde |
   "D" (!2!f!1!^e!1!f) "Bm" (!tenuto!d2 !tenuto!d) | "G" (gfg) "Em" (!tenuto!e2 !tenuto!e) | bef "A7" afe | "D" d2 z d2 z :|
|: "Em" (!tenuto!B2 !tenuto!e) (!tenuto!B2 !tenuto!e) | "G" g6 | "D" (!tenuto!A2 !tenuto!d) (!tenuto!A2 !tenuto!d) | "Bm" f6 |
"Em" (!tenuto!B2 !tenuto!e) (!tenuto!B2 !tenuto!e) | "G" (!tenuto!g2 !tenuto!a) b2 z | "A" a^ga "A7" =gfe | "D" d2 z d2 z :|

